assets/icons/mark-circle.svg

<svg xmlns="http://www.w3.org/2000/svg" viewBox="0 0 16 16" role="presentation" aria-hidden="true"><path fill-rule="evenodd" clip-rule="evenodd" d="M7.99992 13.6668C11.1295 13.6668 13.6666 11.1298 13.6666 8.00016C13.6666 4.87055 11.1295 2.3335 7.99992 2.3335C4.87031 2.3335 2.33325 4.87055 2.33325 8.00016C2.33325 11.1298 4.87031 13.6668 7.99992 13.6668ZM5.1887 8.28534C5.20349 8.32108 5.22483 8.35372 5.25164 8.3816L7.25948 10.382C7.28598 10.4129 7.31881 10.4378 7.35574 10.4549C7.43478 10.4875 7.52352 10.4875 7.60256 10.4549C7.63949 10.4378 7.67232 10.4129 7.69881 10.382L11.2542 6.84517C11.281 6.8173 11.3023 6.78465 11.3171 6.74891C11.3466 6.66928 11.3466 6.58173 11.3171 6.5021C11.3026 6.46621 11.2813 6.43351 11.2542 6.40584L10.8075 5.97144C10.7813 5.94142 10.7491 5.9173 10.7129 5.9007C10.6768 5.88411 10.6375 5.87541 10.5977 5.87519C10.5553 5.87467 10.5132 5.88308 10.4743 5.89987C10.4367 5.91714 10.4028 5.94143 10.3743 5.97144L7.48162 8.86412L6.134 7.51404C6.10476 7.48385 6.06999 7.45955 6.03157 7.44247C5.99272 7.42538 5.95061 7.41696 5.90817 7.41778C5.869 7.41791 5.83031 7.42632 5.79463 7.44247C5.75757 7.45878 5.72466 7.48324 5.69837 7.51404L5.25164 7.94227C5.22457 7.96993 5.20319 8.00264 5.1887 8.03853C5.15921 8.11816 5.15921 8.20571 5.1887 8.28534Z" fill="currentColor"/></svg>

<svg xmlns="http://www.w3.org/2000/svg" aria-hidden="true" viewBox="0 0 16 16"><path fill="currentColor" fill-rule="evenodd" d="M8 13.667A5.667 5.667 0 1 0 8 2.333a5.667 5.667 0 0 0 0 11.334M5.189 8.285a.3.3 0 0 0 .063.097l2.007 2q.041.046.097.073a.32.32 0 0 0 .247 0 .3.3 0 0 0 .096-.073l3.555-3.537a.3.3 0 0 0 .063-.096.36.36 0 0 0 0-.247.3.3 0 0 0-.063-.096l-.447-.435a.28.28 0 0 0-.21-.096.3.3 0 0 0-.223.096L7.482 8.864l-1.348-1.35a.3.3 0 0 0-.102-.072.29.29 0 0 0-.334.072l-.446.428a.3.3 0 0 0-.063.097.36.36 0 0 0 0 .246" clip-rule="evenodd"/></svg>
